X: 132
Q: "slow"
M: C
L: 1/8
K: Dmix
V: 1
|:\
d>eg>a Jb2(Ta>g) | g2G>A {c}B2(TA>G) | c3d e>fg>B | A8 :|
V: 2 clef=bass middle=d
|:\
d'2"4;2"c'2 "6"babc' | "6;4"d'2"5;3"d2 ga"6"bg | c2zd g2G2 | c2c'b c'd'"6"e'c' |
"6"b3"6"c' "6;4"d'2"5;3"d2 | g4 "4;2"=f4 | "6"ede"6"B c2G2 | d8 :|

